icon-themes/sifr_svg/cmd/sc_insertauthorfield.svg

<svg viewBox="0 0 16 16" xmlns="http://www.w3.org/2000/svg"><path d="m2 1v15h12v-8.6l-2 2v4.6h-8v-11h5v1.6l2.3-2.3-1.3-1.3zm12 0-9 9v1h1l1-1c1.2-1 2.6-.8 4-1l1-1h-2v-1h2l1-1 1-3zm-6 10v1h-3v1h6v-2h-1v1h-1v-1z" fill="#555753"/></svg>

<svg xmlns="http://www.w3.org/2000/svg" viewBox="0 0 16 16">
  <path
     style="fill:#555753"
     d="M 2 1 L 2 16 L 14 16 L 14 7.4 L 12 9.4 L 12 14 L 4 14 L 4 3 L 9 3 L 9 4.6 L 11.3 2.3 L 10 1 L 2 1 z M 14 1 L 5 10 L 5 11 L 6 11 L 7 10 C 8.2 9 9.6 9.2 11 9 L 12 8 L 10 8 L 10 7 L 12 7 L 13 6 L 14 3 L 14 1 z M 8 11 L 8 12 L 5 12 L 5 13 L 11 13 L 11 11 L 10 11 L 10 12 L 9 12 L 9 11 L 8 11 z "
     />
</svg>
